X:0129
T:The Drummer
N:17th century - found in Playford collections
M:2/4
L:1/8
Q:1/2=84
I: :: ::
Z:Jack Campin * www.campin.me.uk * 2009
K:A Dorian
E|ABcA |E2 EF|G2 AB|(d/c/B/A/) GB|AGAB |E2E=f|edcB|A2A:|
B|c>Bce|d>cde|c>Bce|(d/c/B/A/) GB|c>Bce|dcd=f|edcB|A2A:|

